assets/icons/telegram.svg

<?xml version="1.0" encoding="UTF-8"?>
<svg width="12px" height="10px" viewBox="0 0 12 10" version="1.1" xmlns="http://www.w3.org/2000/svg" xmlns:xlink="http://www.w3.org/1999/xlink">
    <!-- Generator: Sketch 64 (93537) - https://sketch.com -->
    <title>path9</title>
    <desc>Created with Sketch.</desc>
    <g id="Page-1" stroke="none" stroke-width="1" fill="none" fill-rule="evenodd">
        <g id="mobile-Index" transform="translate(-205.000000, -3431.000000)" fill="#FFFFFF" fill-rule="nonzero">
            <g id="Group-19" transform="translate(0.000000, 3270.000000)">
                <g id="Group-17" transform="translate(23.000000, 114.000000)">
                    <g id="Group-14" transform="translate(0.000000, 35.000000)">
                        <g id="iconfinder_telegram_386727-copy" transform="translate(182.000000, 12.000000)">
                            <path d="M10.6238656,0.575727793 L1.15341984,4.22849801 C0.50704668,4.48783516 0.51088,4.84835375 1.03560355,5.00911176 L3.39756133,5.74632688 L4.3013018,8.51712566 C4.41117011,8.82038891 4.35700977,8.9406675 4.67546632,8.9406675 C4.92122811,8.9406675 5.03025257,8.82861883 5.16713073,8.6949057 C5.25417409,8.60972637 5.77098409,8.10726473 6.34803948,7.54621227 L8.80491862,9.36146621 C9.25701745,9.61088523 9.58345725,9.48167398 9.69603366,8.94158188 L11.3087841,1.34167613 C11.4739032,0.67968791 11.0564104,0.379413887 10.6238656,0.575727793 Z M3.76824387,5.57695258 L9.09210975,2.21809063 C9.35788253,2.0569107 9.60156921,2.14356742 9.40149198,2.32117137 L4.84287104,6.43419965 L4.66537292,8.3273532 L3.76824387,5.57695258 Z" id="path9"></path>
                        </g>
                    </g>
                </g>
            </g>
        </g>
    </g>
</svg>

<svg width="12" height="10" xmlns="http://www.w3.org/2000/svg"><path d="M10.624.576l-9.47 3.652c-.647.26-.643.62-.118.781l2.362.737.903 2.771c.11.303.056.424.374.424.246 0 .355-.112.492-.246l1.181-1.149 2.457 1.815c.452.25.778.12.891-.42l1.613-7.6c.165-.661-.253-.962-.685-.765zM3.768 5.577l5.324-3.359c.266-.161.51-.074.31.103l-4.56 4.113-.177 1.893-.897-2.75z" fill="#FFF" fill-rule="nonzero"/></svg>
